X:1
T:onata
T:Concerto Grosso Op. 6 No.1
T:Concerto Grosso in D major
T:Arcangelo Corelli (1653-1713)
T:Opus 6 No. 1 (on or before 1712, publ. 1714)
T:Arranged for two recorders and continuo  by Johann Christian Schickhardt (1682-1762)
T:Creative Commons - Corelli, Concerto Grosso No.1
T:Creative Commons - Corelli, Concerto Grosso No.1
T:Creative Commons - Corelli, Concerto Grosso No.1
T:Creative Commons - Corelli, Concerto Grosso No.1
T:Creative Commons - Corelli, Concerto Grosso No.1
T:Creative Commons - Corelli, Concerto Grosso No.1
T:Creative Commons - Corelli, Concerto Grosso No.1
T:Creative Commons - Corelli, Concerto Grosso No.1
C:Arcangelo Corelli (1653-1713)
Z:Creative Commons - Corelli, Concerto Grosso No.1
%%score 1 2 3
L:1/8
Q:1/4=50
M:4/4
K:D
V:1 treble nm="Treble Recorder" snm="A. Rec."
V:2 treble nm="Treble Recorder" snm="A. Rec."
V:3 bass+8 nm="Bass Recorder" snm="B. Rec."
V:1
"^1. Largo" a2 z (a/b/) a2 z (a/b/) | adg>g g2 z f | fBe>e cB/A/ z d | g(a/b/) a>g f(e/d/) z A | %4
 ^A>A B>B c2 z/ c/d/e/ | d(c/B/) g>g gc f2- | f(g/a/) e>f !>!!fermata!f2 z ^A | Bf =A>A A^G z G | %8
 Ae =G>G GF z f | f>e e>d d2 z/ B/c/d/ | e>d d>c c2 z f | B2 z g c2 z a | d2 z b c2 z a | %13
 g2 (fe) (fg/a/) e>d | d2 a2 g2 f2 | b2 a2 g2 f2 | e2 z a b>a (gf) | (fg/a/) e>d d4 |]: %18
[M:4/4]"^2. Allamanda Vivace"[Q:1/4=100] dAdf eA(ea) | f(e/d/) z b (b/a/g/f/ e)a | %20
 ad z g (g/f/e/d/ c)f | fB z b acdG | FdAc dF z d | z8 | z8 | z8 | z8 | z8 | aA z f (f/e/d/c/ B)e | %29
 eA z d (d/c/B/A/ ^G)c | cF z f e^GAd | caB^g aA z e | FAB^G A4 :: cAce B^GBe | cAce B^GBe | %35
 cAcf c^Acf | dBdf c^Acf | dBdg gccf | fBBb ^a(^g/f/) be | dbc^a BFBF | cFcF dFBF | cFcF df b2- | %42
 b2 a^g a2 g2 | f2 z2 f2 z2 | (fedc BA^GF) | ^Ec f2- f(^g/a/) ^e>f | f4 dAdf | eAea f(e/d/) z b | %48
 (b/a/g/f/ e)a ad z g | (g/f/e/d/ c)f fB z b | acdG Fd=Ac | dA z b (b/a/g/f/ e)a | %52
 fB z e (e/^d/c/B/ A)d | fB z b acdG | Fd=Ac dA z f | BdAc d4 |]: %56
[M:3/8]"^3. Allegro"[Q:1/4=100] d(c/B/)(A/G/) | F(e/d/)A | (d/e<)ed/4(e/4 | f)dA | f2 z | e2 z | %62
!p! fd>c | c3 ::!f! a(g/f/)(e/d/) | (c/d<)dc/4(d/4 | e/)f/ f2 | e A2 | a2 z | g2 z | f/e<ed/ | %71
 d3 ::!p! a2 z | g2 z | f/e<ed/ | d3 | c/F/^A/c/f/c/ | d2 z | c/F/^A/c/f/c/ | d2 z | %80
 f/B/^d/f/b/f/ | g2 z | f/B/^d/f/b/f/ | g2 z |!p! ^e/c/e/^g/e/c/ | f2 z | ^g/c/g/b/a/g/ | a2 z | %88
 b/f/b/a/^g/f/ | c'2 c | (B/A<)^GF/ | F3 | (^e/c/)(e/^g/)(e/c/) | f2 z | (^g/c/)(g/b/)(a/g/) | %95
 a2 z | (b/f/)(b/a/^g/f/) | c'2 c | (B/A<)^GF/ | F3 | d(c/B/)(A/G/) | F(e/d/)A | (d/e<)e(d/4e/4 | %103
 f)dA | f2 z | e2 z |!p! (f/e<)dc/ | c3 |:!f! a(g/f/)(e/d/) | (c/d/) d2 | (e/f/) f2 | e A2 | a2 z | %113
 g2 z | (f/e<)ed/ | d3 :|!p! a2 z | g2 z | f/e<ed/ | d3 |]:[M:2/4]"^4. Allegro"[Q:1/4=110] f2 a2 | %121
 d3 a | (ba) g2 | f4 | f2 z2 | e2 z2 | d2 z2 | c2 z2 | f2 z2 | ^G2 A2- | A2 ^G2 | A4 :: z2 e2 | %133
 z2 e2 | z2 e2 | z2 e2 | z2 f2 | z2 f2 | z2 f2 | z2 f2 | g2 f2 | e2 d2 | =c2 B2 | ^A2 B2- | %144
 B2 ^A2 |!p! B2 d2 | c2 f2 | B2 e2- | efdc | d2 c2 |!f! BfdB | cFcf | d2 z2 | F2 z2 | z b ge | %155
 fdfb | g2 z2 | B2 z2 | z2 b2- | b2 a2- | a2 gf | g2 f2 |!p! e2 g2 | f2 b2 | e2 a2- | abgf | %166
 g2 f2 |!f! eBeB | fBfB | g2 z2 | B2 z2 | B2 z2 | (^ga)(ba) | (^ga)(ba) | ^g2 c2 | d2 ^d2 | %176
 e2 ^e2 | (fc')(a^g) | a2 ^g2 | f2 c2 | d2 ^d2 | e2 ^e2 | (fc')(a^g) | a2 ^g2 | f4 | f2 a2 | %186
 d2 a2 | (ba) g2 | f4 | f2 z2 | e2 z2 | d2 z2 | c2 z2 | f2 z2 | ^G2 A2- | A2 ^G2 | A4 | d2 f2 | %198
 B2 AG | e2 g2 | c2 (BA) | f2 a2 | d4 | e4 | f4 | e4 | d4 | c4 | B4 | A>c d>e | f2 e2 | d2 b2 | %212
 z2 a2 | z2 g2 | z2 f2 | z2 e2 | a>c d>e | f2 e2 |!p! d2 b2 | z2 a2 | z2 g2 | z2 f2 | z2 e2 | %223
!f! a>c d>e | f2 e2 | d2 b2 | c2 z a | b2 (ag/f/) | e3 d | d4 |][M:6/8]"^5. Giga" d2 e2 f/g/a | %231
 e2 e e3 | d2 e f>ga | e3- e3 |: d>ef f>ga | b2 b2 b2 | c>de e>fg | a2 a a3 | B>cd d>ef | %239
 g2 f e2 d | c2 d g2 f | e3 A3 | d>ef f>ga | b2 b b3 | c>de e>fg | a2 a a3 | B>cd d>ef | %247
 g2 f e2 d | c2 d d2 c |1 d3 d3 :|2 d3 d3 |] %251
V:2
 f2 z (f/g/) e2 z (f/e/) | ddd>e c2 z A | B2 z B AB/c/ d2- | de c>c d2 z f | e(f/e/) dd F2 Fc | %5
 F2 z B c3 F | (Bc/d/) c>B !>!!fermata!^A2 z c | F2 z f B2 z B | e3 e A3 B | c2 c2 F2 z F | %10
 B2 B2 AA d2 | z B e2 z c f2 | z d g(f/g/) e2 z f | Bc (d3 e) c>d | d2 e2 d2 c2 | B2 d2 c2 d2 | %16
 c2 z f Bc d2- | (de) c>d d4 |]:[M:4/4] f2 d2 a2 c2 | d2 d2 c2 a2 | d'2 g2 z2 f2 | b2 e2 z2 d2 | %22
 A2 G2 F2 d2 | ecea fdfb | ^gegb c'(b/a/) z f | (f/e/d/c/ B)e eA z d | (d/c/B/A/ ^G)c cF z f | %27
 e^GAd caB^g | c2 A2 z2 e2 | a2 d2 z2 c2 | f2 B2 z2 ef | e2 d2 c2 z A | (dc) B2 c4 :: z2 e2 z2 e2 | %34
 z2 e2 z2 e2 | z2 f2 z2 f2 | z2 f2 z2 f2 | z2 d2 c2 f2 | B2 e4 fg | d2 c2 B2 z2 | F2 z2 F2 z2 | %41
 F2 z2 F3 f | ^ec (f3 ^g) e2 | z2 f2 z2 f2 | z2 (fe dcBA) | ^G2 (AB) A2 G2 | F4 f2 d2 | %47
 a2 c2 d2 D2 | z2 a2 d'2 g2 | z2 f2 b2 e2 | z2 d2 A2 G2 | F2 d2 c2 a2 | d'2 g2 z2 f2 | %53
 b2 e2 z2 d2 | A2 G2 F2 z a | (gf)e>d d4 |]:[M:3/8] f e2 | d3 | (B/c/) c2 | d3 | d2 z | c2 z | %62
!p! F ^G2 | A3 :: z3 |!f! a(g/f/)(e/d/) | c d2 | c3 | d2 z | e2 z | d c2 | d3 ::!p! d2 z | e2 z | %74
 d c2 | d3 | z3 | d/B/d/f/d/B/ | f2 z | d/B/d/f/d/B/ | f2 z | g/e/g/b/g/e/ | b2 z | e/B/e/g/e/g/ | %84
 c2 z | c/F/A/c/A/F/ | c2 z | c/F/A/c/A/F/ | f2 b | ^e2 f | (^g/a<)^ef/ | f3 | z3 | %93
!p! c/F/A/(c/A/)F/ | c2 z | c/F/(A/c/)(A/F/) | f2 b | ^e2 f | (^g/a<)^ef/ | f3 | f e2 | d3 | %102
 (B/c/) c2 | d3 | d2 z | c2 z |!p! F ^G2 | A3 |: z3 |!f! a(g/f/)(e/d/) | c d2 | c3 | d2 z | e2 z | %114
 d c2 | d3 :|!p! d2 z | e2 z | d c2 | d3 |]:[M:2/4] a2 e2 | f2 d2- | d2 c2 | d4 | A2 d2 | z2 c2 | %126
 z2 B2 | z2 e2 | z2 d2 | z2 c2 | B2 A2 | A4 :: c2 z2 | B2 z2 | c2 z2 | B2 z2 | d2 z2 | c2 z2 | %138
 d2 z2 | c2 z2 | d2 c2 | B2 A2 | G2 F2 | Eedc | d2 c2 | z2!p! B2 | ^A2 =A2 | ^G2 =G2 | F2 B2 | %149
 E2 F2 | B2 z2 | z4 | z!f! f dB | cFcf | d2 z2 | B2 z2 | z b ge | fBfb | g2 z2 | =c'4 | ^d2 e2- | %161
 e2 ^d2 | e2!p! e2 | ^d2 =d2 | c2 =c2 | B2 e2 | A2 B2 | F2 z2 | z4 | z!f! B eB | fBfB | g2 f2 | %172
 (^ef)(^gf) | (^ef)(^gf) | ^e^G A2 | z F B2 | z ^G c2 | z c f2- | f2 ^e2 |!p! (f^g) a2 | z F B2 | %181
 z ^G c2 | z c f2- | f2 ^e2 | f4 |!f! a2 e2 | f2 d2- | d2 c2 | d4 | A2 d2 | z2 c2 | z2 B2 | z2 e2 | %193
 z2 d2 | z2 c2 | B3 A | A4 | z4 | d2 (cB) | z4 | e2 (dc) | z4 | f2 B2 | A2 G2 | F2 b2- | b2 a2- | %206
 a2 g2- | g2 f2- | fBed | cA d2- | d2 c2 | d2 z2 | e2 z2 | d2 z2 | c2 z2 | B2 z2 | cA d2- | d2 c2 | %218
!p! d2 z2 | e2 z2 | d2 z2 | c2 z2 | B2 z2 |!f! cA d2- | d2 c2 | d2 z g | e2 z f | Bc d2- | d2 c2 | %229
 d4 |][M:6/8] f2 c d>ef | c2 A A2 a | A2 a A2 d | c3- c3 |: a2 A d>ef | g2 g2 g2 | g2 c2 c/d/e | %237
 f2 f f3 | f2 B B>cd | e2 f g3 | a2 A c2 d | c3 e>dc | a2 A d>ef | g2 g2 g2 | g2 c2 c/d/e | %245
 f2 f f3 | f2 B B>cd | e2 f g>ab | e2 a2 g/f/e |1 f2 d d3 :|2 f2 d d3 |] %251
V:3
 D,2 z D, C,2 z C, | B,,B,,E,E, A,,B,,/C,/ D,F,, | G,,G,,G,G, G,2 F,2 | E,2 A,,2 D,2 z D, | %4
 C,2 B,,2 ^A,,2 z A,, | B,,2 E,2 A,,2 D,2 | G,,4 F,,!fermata!F,F,E, | ^D,2 z D, E,>F, E,D, | %8
 C,2 z C, D,>D, C,B,, | ^A,,3 A,, B,,>C, B,,A,, | ^G,,3 G,, A,,A,F,D, | G,F,G,E, A,G,A,F, | %12
 B,A,B,G, A,2 z F, | G,A,B,G, A,G,A,A,, | D,2 C2 B,2 A,2 | G,2 F,2 E,2 D,2 | A,,2 z F, G,2 E,2 | %17
 A,4 D,4 |]:[M:4/4] D,2 D2 C2 A,2 | D,2 D,2 C,2 C,2 | B,,2 B,2 A,2 A,,2 | G,,2 G,4 F,G, | %22
 A,2 A,,2 F,,2 D,2 | C2 A,2 D,2 D,2 | E,2 E,2 A,,2 A,2 | ^G,2 ^G,,2 F,,2 F,2 | E,2 E,2 D,2 D,2- | %27
 D,2 C,D, E,2 E,2 | A,,2 A,2 ^G,2 ^G,,2 | F,,2 F,2 E,2 E,2 | D,2 D,4 C,D, | E,2 E,2 A,,2 C,2 | %32
 D,2 E,2 A,,4 :: A,2 z2 ^G,2 z2 | A,2 z2 ^G,2 z2 | A,2 z2 ^A,2 z2 | B,2 z2 ^A,2 z2 | %37
 B,,2 B,2 ^A,2 =A,2 | ^G,2 =G,2 F,2 D,E, | F,2 F,,2 B,,2 B,2 | ^A,2 F,2 z2 B,,2 | %41
 ^A,,2 F,,2 z2 B,2 | C2 F,2 C2 C,2 | ((F,E,D,C, D,C,B,,))^A,, | B,2 z2 B,,2 z2 | C,2 F,2 C2 C,2 | %46
 F,2 E,2 D,2 D2 | C2 A,2 D,2 D2 | C2 C,2 B,,2 B,2 | A,2 A,,2 G,,2 G,2- | G,2 F,G, A,2 A,,2 | %51
 D,2 D,2 z2 C,2 | B,,2 B,2 A,2 A,,2 | G,,2 G,4 F,G, | A,2 A,,2 D,2 F,2 | G,2 A,2 D,4 |]: %56
[M:3/8] D, A,,2 | B,2 F, | G,E,A, | D,2 z | D,F,D, | A,C,A,, |!p! D,B,,E, | A,,3 ::!f!!f! A,2 z | %65
 A,,2 z | A,2 z | A,,A,G, | F,G,A, | C,2 z | D, A,,2 | D,3 ::!p! F,G,A, | C,2 z | D, A,,2 | D,3 | %76
 ^A,F,A, | B,B,,B, | ^A,F,A, | B,2 z | ^D,B,,D, | E,E,E, | ^D,B,,D, | E,2 z |!p!!p! C,B,,C, | %85
 A,,^G,,F,, | ^E,C,E, | F,,F,=E, | D,B,B,, | B,,2 A,, | B,,C,C, | F,,3 | C,B,,C, | A,,^G,,F,, | %94
 ^E,C,E, | F,,F,=E, | D,B,B,, | B,,2 A,, | B,,C,C, | F,,3 | D, A,,2 | B,,2 F,, | G,E,A, | D,3 | %104
 D,F,D, | A,C,A,, |!p! D,B,,E, | A,,3 |:!f!!f! A,2 z | A,,2 z | A,2 z | A,,A,G, | F,G,A, | C,2 z | %114
 D, A,,2 | D,3 :|!p! F,G,A, | C,A,,C, | D,G,,A,, | D,3 |]:[M:2/4]!mf! D,2 C,2 | B,,3 F, | %122
 G,F,E,A, | D,4 | D,E,F,^G, | A,B,CA, | B,A,^G,E, | A,B,CC, | D,E,F,D, | E,E,F,C, | D,B,,E,^G,, | %131
 A,,4 :: z A, CA, | ^G,E,G,E, | z A, CA, | ^G,E,G,E, | z B,, D,B,, | ^A,,F,,A,,F,, | z B,, D,B,, | %139
 ^A,,F,,A,,F,, | B,B,,A,A,, | G,G,,F,F,, | E,G,,D,F,, | C,2 B,,2 | F,2 F,,2 | B,,2 z2 | z4 | z4 | %148
 z4 | z4 | z2!f!!f! B,2 | ^A,2 F,2 | z2 B,,2 | ^A,,2 F,,2 | z2 E,2 | ^D,2 B,,2 | z2 E,2 | %157
 ^D,2 B,,2 | z2 G,,2 | A,,2 A,2 | B,2 E,2 | B,2 B,,2 | E,2 z2 | z4 | z4 | z4 | z4 | z2!f!!f! E,2 | %168
 ^D,2 B,,2 | z2 E,2 | ^D,2 B,,2 | E,2 =D,2 | C,2 z2 | C,2 z2 | C,2 z2 | z4 | z4 | F,F,,A,,B,, | %178
 C2 C,2 | F,,2 z2 | z4 | z4 | F,F,,A,,B,, | C2 C,2 | F,,4 |!f! D,2 C,2 | B,,3 F,, | G,F,E,A, | %188
 D,4 | D,E,F,^G, | A,B,CA, | B,A,^G,E, | A,B,CC, | D,E,F,D, | E,E,F,C, | D,B,,E,A,, | A,2 G,2 | %197
 F,2 D,2 | G,2 G,,2 | E,2 E,2 | A,2 A,,2 | F,2 F,,2 | B,2 B,,2 | C,2 A,,2 | z2 D2 | C2 F,2 | %206
 z2 B,2 | A,2 D,2 | z2 G,2- | G,2 F,G, | A,2 A,,2 | D,2 z2 | C,2 z2 | B,,2 z2 | A,,2 z2 | %215
 G,,2 G,2- | G,2 F,G, | A,2 A,,2 |!p!!p! D,2 z2 | C,2 z2 | B,,2 z2 | A,,2 z2 | G,,2 G,2- | %223
!f! G,2 F,G, | A,2 A,,2 | D,2 G,,2 | A,,2 z F, | G,2 D,2 | A,2 A,,2 | D,4 |][M:6/8] D2 A, D,2 D, | %231
 A,,2 B,, C,>B,,A,, | F,2 C, D,2 A,, | A,,2 A, A,,2 A, |: F,3 F,>E,D, | G,>A,G, G,2 F, | %236
 E,3 E,>D,C, | F,>G,F, F, E,2 | D,3 D,>C,B,, | E,2 D, C,2 B,, | A,>G,F, E,2 D, | A,,2 B,, C,>D,E, | %242
 F,2 F, F,>E,D, | G,>A,G, G,2 F, | E,3 E,>D,C, | F,>G,F, F,2 E, | D,3 D,>C,B,, | E,2 D, C,2 B,, | %248
 A,>G,F, E,2 A, |1 D,2 D D,2 D :|2 D,2 D D,3 |] %251

